picto/mobile-phone.svg

<svg class="color-immutable" width="24" height="24" viewBox="0 0 24 24" fill="none" xmlns="http://www.w3.org/2000/svg"><path d="M0 22.5V1.5C0 0.675 0.675 0 1.5 0H22.5C23.325 0 24 0.675 24 1.5V22.5C24 23.325 23.325 24 22.5 24H1.5C0.675 24 0 23.325 0 22.5Z" fill="#2D327D"/><path d="M3.26103 16.182L3.25803 16.183C3.08103 16.602 3.00403 17.069 3.00103 17.465C2.99803 17.86 3.00103 21 3.00103 21H10.822C10.906 20.812 11.138 20.39 11.387 19.856C11.187 19.945 10.959 19.997 10.713 20.004C10.695 20.004 10.676 20.005 10.658 20.005C10.358 20.005 10.048 19.936 9.76203 19.806L6.25303 18.211C5.74903 17.982 5.36103 17.584 5.18903 17.118C5.05603 16.759 5.06503 16.384 5.21403 16.064L6.80103 12.652L7.67303 10.776C7.83803 10.271 7.69403 9.712 7.29603 9.349C7.24003 9.297 7.17503 9.255 7.10203 9.224C6.75703 9.078 6.35703 9.241 6.21103 9.587L3.26103 16.182Z" fill="white"/><path d="M12.516 20.967C12.071 20.962 11.715 20.598 11.72 20.153C11.725 19.708 12.09 19.35 12.535 19.356H14.013C14.457 19.351 14.822 19.707 14.828 20.152C14.833 20.596 14.477 20.962 14.032 20.966L12.516 20.967Z" fill="white"/><path d="M13.4341 19.002C12.9891 18.997 12.6331 18.633 12.6381 18.188C12.6431 17.743 13.0081 17.386 13.4531 17.391H14.9311C15.3751 17.386 15.7401 17.742 15.7461 18.187C15.7511 18.631 15.3951 18.997 14.9501 19.001L13.4341 19.002Z" fill="white"/><path d="M14.342 17.048C13.897 17.043 13.541 16.679 13.546 16.234C13.551 15.789 13.916 15.431 14.361 15.437H15.839C16.283 15.432 16.648 15.788 16.654 16.233C16.659 16.677 16.303 17.043 15.858 17.047H14.342V17.048Z" fill="white"/><path d="M15.245 15.153C14.8 15.148 14.444 14.783 14.449 14.339C14.454 13.894 14.819 13.536 15.264 13.542H16.742C17.186 13.537 17.551 13.893 17.557 14.338C17.562 14.782 17.206 15.148 16.761 15.153H15.245Z" fill="white"/><path d="M16.51 7.822C16.347 7.501 16.055 7.232 15.687 7.065L12.177 5.47C11.936 5.36 11.675 5.302 11.425 5.302L11.38 5.303C10.886 5.317 10.488 5.546 10.315 5.917L5.52801 16.21C5.41701 16.449 5.41201 16.722 5.51401 16.998C5.65401 17.377 5.97601 17.704 6.39601 17.895L9.90501 19.49C10.146 19.599 10.406 19.657 10.657 19.657L10.702 19.656C11.197 19.642 11.595 19.413 11.767 19.043L16.555 8.75C16.687 8.468 16.671 8.139 16.51 7.822ZM9.19801 17.75C9.07901 17.997 8.77701 18.099 8.52501 17.979C8.27301 17.858 8.16601 17.561 8.28501 17.314C8.40501 17.067 8.70501 16.965 8.95701 17.085C9.21001 17.205 9.31701 17.502 9.19801 17.75ZM11.572 17.342L6.95401 15.265L10.976 6.544L15.594 8.62L11.572 17.342Z" fill="white"/></svg>

<svg class="color-immutable" width="24" height="24" viewBox="0 0 24 24" fill="none" xmlns="http://www.w3.org/2000/svg"><g clip-path="url(#a)"><path d="M0 22.5v-21C0 .675.675 0 1.5 0h21c.825 0 1.5.675 1.5 1.5v21c0 .825-.675 1.5-1.5 1.5h-21C.675 24 0 23.325 0 22.5Z" fill="#2D327D"/><path d="m3.261 16.182-.003.001a3.459 3.459 0 0 0-.257 1.282c-.003.395 0 3.535 0 3.535h7.821c.084-.188.316-.61.565-1.144a1.78 1.78 0 0 1-.674.148l-.055.001c-.3 0-.61-.069-.896-.199l-3.509-1.595c-.504-.229-.892-.627-1.064-1.093a1.362 1.362 0 0 1 .025-1.054l1.587-3.412.872-1.876a1.36 1.36 0 0 0-.377-1.427.68.68 0 0 0-1.085.238l-2.95 6.595ZM12.516 20.967a.805.805 0 1 1 .019-1.611h1.478a.805.805 0 1 1 .019 1.61l-1.516.001ZM13.434 19.002a.805.805 0 1 1 .02-1.611h1.477a.805.805 0 1 1 .019 1.61l-1.516.001ZM14.342 17.048a.805.805 0 1 1 .019-1.611h1.478a.805.805 0 1 1 .019 1.61h-1.516v.001ZM15.245 15.153a.805.805 0 1 1 .019-1.611h1.478a.807.807 0 0 1 .019 1.611h-1.516Z" fill="#fff"/><path d="M16.51 7.822a1.699 1.699 0 0 0-.823-.757l-3.51-1.595a1.83 1.83 0 0 0-.752-.168l-.045.001c-.494.014-.892.243-1.065.614L5.528 16.21a1.008 1.008 0 0 0-.014.788c.14.379.462.706.882.897l3.509 1.595c.241.109.501.167.752.167l.045-.001c.495-.014.893-.243 1.065-.613L16.555 8.75c.132-.282.116-.611-.045-.928ZM9.198 17.75a.505.505 0 0 1-.673.229.499.499 0 0 1-.24-.665.504.504 0 0 1 .672-.229c.253.12.36.417.241.665Zm2.374-.408-4.618-2.077 4.022-8.721 4.618 2.076-4.022 8.722Z" fill="#fff"/></g><defs><clipPath id="a"><path fill="#fff" d="M0 0h24v24H0z"/></clipPath></defs></svg>
